rospo-icon-theme-classic-common/24x24/devices/drive-harddisk-system.svg

<svg height="24" width="24" xmlns="http://www.w3.org/2000/svg"><rect height="16" opacity=".2" rx="1" transform="matrix(0 -1 -1 0 0 0)" width="20" x="-22.5" y="-20"/><rect fill="#8e8e8e" height="16" rx="1" transform="matrix(0 -1 -1 0 0 0)" width="20" x="-22" y="-20"/><path d="m12 5c-2.7614 0-5 2.2386-5 5v5h5c2.7614 0 5-2.2386 5-5s-2.2386-5-5-5zm0 2c1.65684 0 3 1.34316 3 3s-1.34316 3-3 3-3-1.34316-3-3 1.34316-3 3-3z" opacity=".5"/><path d="m5 2c-.554 0-1 .446-1 1v .5c0-.554.446-1 1-1h14c .554 0 1 .446 1 1v-.5c0-.554-.446-1-1-1z" fill="#fff" opacity=".2"/></svg>

<svg xmlns="http://www.w3.org/2000/svg" width="24" height="24" version="1">
 <rect style="opacity:0.2" width="20" height="16" x="-22.5" y="-20" rx="1" ry="1" transform="matrix(0,-1,-1,0,0,0)"/>
 <rect style="fill:#8e8e8e" width="20" height="16" x="-22" y="-20" rx="1" ry="1" transform="matrix(0,-1,-1,0,0,0)"/>
 <path style="opacity:0.5" d="M 12 5 C 9.2386 5 7 7.2386 7 10 L 7 15 L 12 15 C 14.7614 15 17 12.7614 17 10 C 17 7.2386 14.7614 5 12 5 z M 12 7 C 13.65684 7 15 8.34316 15 10 C 15 11.65684 13.65684 13 12 13 C 10.34316 13 9 11.65684 9 10 C 9 8.34316 10.34316 7 12 7 z"/>
 <path style="fill:#ffffff;opacity:0.2" d="m5 2c-0.554 0-1 0.446-1 1v0.5c0-0.554 0.446-1 1-1h14c0.554 0 1 0.446 1 1v-0.5c0-0.554-0.446-1-1-1h-14z"/>
</svg>
